.local/share/icons/Gruvbox-Plus-Dark/actions/24/udiskie-unmount.svg

<svg xmlns="http://www.w3.org/2000/svg" width="24" height="24" version="1.1">
 <defs>
  <style id="current-color-scheme" type="text/css">
   .ColorScheme-Text { color:#555555; } .ColorScheme-Highlight { color:#4285f4; } .ColorScheme-NeutralText { color:#ff9800; } .ColorScheme-PositiveText { color:#4caf50; } .ColorScheme-NegativeText { color:#f44336; }
  </style>
 </defs>
 <path style="fill:currentColor" class="ColorScheme-Text" d="m 12,5 a 7,7 0 0 0 -7,7 7,7 0 0 0 0.066406,0.949219 l 2.3339844,-1.75 A 1.0001,1.0001 0 0 1 8.4472656,11.105469 1.0001,1.0001 0 0 1 9,12 v 1 h 1.267578 A 2,2 0 0 1 10,12 2,2 0 0 1 12,10 2,2 0 0 1 14,12 2,2 0 0 1 13.585938,13.191406 1.0001,1.0001 0 0 1 14,14 v 2 a 1.0001,1.0001 0 0 1 -1,1 H 9 v 1 A 1.0001,1.0001 0 0 1 8.9550781,18.292969 7,7 0 0 0 12,19 7,7 0 0 0 19,12 7,7 0 0 0 12,5 Z m -4,7 -4,3 4,3 v -2 h 5 V 14 H 8 Z"/>
</svg>

<svg width="24" height="24" version="1.1" xmlns="http://www.w3.org/2000/svg">
  <defs>
    <style id="current-color-scheme" type="text/css">.ColorScheme-Text { color:#ebdbb2; } .ColorScheme-Highlight { color:#458588; }</style>
  </defs>
  <path class="ColorScheme-Text" d="m12 5a7 7 0 0 0-7 7 7 7 0 0 0 0.06641 0.9492l2.334-1.75a1 1 0 0 1 1.047-0.09375 1 1 0 0 1 0.5527 0.8945v1h1.268a2 2 0 0 1-0.2676-1 2 2 0 0 1 2-2 2 2 0 0 1 2 2 2 2 0 0 1-0.4141 1.191 1 1 0 0 1 0.4141 0.8086v2a1 1 0 0 1-1 1h-4v1a1 1 0 0 1-0.04492 0.293 7 7 0 0 0 3.045 0.707 7 7 0 0 0 7-7 7 7 0 0 0-7-7zm-4 7-4 3 4 3v-2h5v-2h-5z" fill="currentColor"/>
</svg>
